X:1
T:Title
%%score ( 1 2 3 ) ( 4 5 6 )
L:1/8
M:4/4
K:F
V:1 treble nm="Choir Aahs, Staff"
V:2 treble 
V:3 treble 
V:4 bass nm="Choir Aahs, Staff-1"
V:5 bass 
V:6 bass 
V:1
 [FA]2 [FA]2 [FA]2 [Fc]2 | B3 B [FA]4 | [FA]2 [FA]2 [EG]2 [FA]2 | B-[EB] [FA]2 G2- [EG]2 | %4
w: By~Luneberg~Gesangbuch,~1686 * * *||||
 [CF]4 [FA]2 [FA]2 | [FA]2 [Fc]2 B3 B | [FA]4 [FA]2 [FA]2 | [EG]2 [FA]2 B-[EB] [FA]2 | F2 z2 z4 | %9
w: |||||
 [FA]2 [FA]2 [FG]2 [EG]2 | [EF]2 [DF]2 [^CE]4 | d2 z2 B2 z2 | G4 z4 |] %13
w: ||||
V:2
 x8 | F2 E2 z4 | x8 | .F2 z2 F2 z2 | x8 | z4 F2 E2 | x8 | z4 .F2 z2 | G2- [EG]2 [CF]4 | x8 | x8 | %11
 DE [Fc]2 FE [FA]2 | F2 z G [CF]4 |] %13
V:3
 x8 | x8 | x8 | x8 | x8 | x8 | x8 | x8 | x8 | x8 | x8 | x8 | z2 E2 z4 |] %13
V:4
 z2 C2 z4 | [G,,D]2 [C,C]2 [F,C]4 | [F,C]2 [A,,C]2 [C,C]2 [F,,C]2 | z4 z2 .C2 | z4 z2 C2 | %5
 [D,D]2 [A,,C]2 [G,,D]2 [C,C]2 | [F,C]4 [F,C]2 [A,,C]2 | [C,C]2 [F,,C]2 [G,,B,]2 [A,,C]2 | %8
 z2 .C2 z4 | C2 C2 C4 | z2 A,2 z4 | .F,2 z2 z4 | [B,,D]2 [C,C]2 [F,A,]4 |] %13
V:5
 [F,C]2 F,E, [D,D]2 [A,,C]2 | x8 | x8 | [G,,B,]2 [A,,C]2 [B,,D]2 C,-[C,B,] | [F,A,]4 [F,C]2 F,E, | %5
 x8 | x8 | x8 | [B,,D]2 C,-[C,B,] [F,A,]4 | z4 z2 C,2 | [D,A,]2 F,,G,, [A,,A,]4 | %11
 B,,-[B,,G,] [A,,A,]2 [G,,B,]2 [A,,C]2 | x8 |] %13
V:6
 x8 | x8 | x8 | x8 | x8 | x8 | x8 | x8 | x8 | F,,G,,A,,B,, C,2 z B, | x8 | x8 | x8 |] %13

